X: 6035
T: Cape Breton
R: jig
M: 6/8
K: Gmajor
|:B2G GFG|Bcd dBG|EAA A2G|EAA ABc|
dBG G3|Bcd dBG|EcB AGF|G3 G2c||
dBG D3|Bcd DBG|EAA A2G|EAA ABc|
dBG D3|DGB dBG|EcB AGF|G3 G2f||
|:g2d BGd|g3 fed|eAA BGd|eaa gfe|
g2d BGd|g3 fed|ecB AGF|G3 G2f:|

